X: 663
T: Jian lantan
%%abc-version 2.0
%%abcx-abcm2ps-target-version 5.9.1 (29 Sep 2008)
%%abc-creator hum2abc beta
%%abcx-conversion-date 2013/10/02 07:52:30
%%abc-edited-by Helmut Schaffrath
%%humdrum-veritas 3698676240
%%humdrum-veritas-data 208011321
%%continueall 1
%%barnumbers 0
L: 1/8
M: 2/4
K: F
d2d f [I:setbarnb 1]| 
d2A c | 
f> f f d | 
c3A | 
c2A c | 
d2c A | 
G> A F A | 
G4 | 
A2A G | 
Af2d | 
A2c2 | 
F3D | 
dc2d | 
c2A2 | 
G> C D E | 
D4 |]  



